app/img/dest/calendar.svg

<svg width="20" height="20" viewBox="0 0 20 20" fill="none" xmlns="http://www.w3.org/2000/svg">
<path d="M14.9074 4.22101C15.6739 4.22101 16.2948 3.60427 16.2948 2.83644V1.38731C16.2948 0.618797 15.6746 0 14.9074 0C14.1403 0 13.5208 0.618111 13.5208 1.38731V2.83713C13.5215 3.60427 14.141 4.22101 14.9074 4.22101Z" fill="#00D053"/>
<path d="M19.8365 2.89892C19.8361 2.62302 19.6124 2.39953 19.3365 2.39953H17.5434C17.2672 2.39953 17.0434 2.62339 17.0434 2.89953V3.10486C17.0434 4.26897 16.0977 5.21743 14.9315 5.21743C13.7639 5.21743 12.8203 4.26897 12.8203 3.10486V2.89953C12.8203 2.62339 12.5964 2.39953 12.3203 2.39953H7.68519C7.40905 2.39953 7.18519 2.62339 7.18519 2.89953V3.10486C7.18519 4.26897 6.23811 5.21743 5.07263 5.21743C3.90715 5.21743 2.96075 4.26966 2.96075 3.10486V2.89335C2.96075 2.61963 2.74066 2.39679 2.46696 2.39339L0.649067 2.37079C0.370516 2.36733 0.142853 2.59218 0.142853 2.87076V19.4999C0.142853 19.776 0.36671 19.9999 0.642853 19.9999H1.55214H18.4499L19.358 19.9972C19.6338 19.9964 19.8569 19.7724 19.8565 19.4966L19.8365 2.89892ZM18.4485 18.5954H2.05214C1.776 18.5954 1.55214 18.3715 1.55214 18.0954V7.8293C1.55214 7.55316 1.776 7.3293 2.05214 7.3293H17.9499C18.2261 7.3293 18.4499 7.55316 18.4499 7.8293V18.594C18.4499 18.5948 18.4493 18.5954 18.4485 18.5954Z" fill="#00D053"/>
<path d="M5.05065 4.22101C5.8171 4.22101 6.43865 3.60427 6.43865 2.83644V1.38731C6.43865 0.618111 5.8171 0 5.05065 0C4.28419 0 3.6647 0.618111 3.6647 1.38731V2.83713C3.6647 3.60427 4.2835 4.22101 5.05065 4.22101Z" fill="#00D053"/>
<path d="M9.30832 8.84106H7.2893C7.23407 8.84106 7.1893 8.88584 7.1893 8.94106V10.6998C7.1893 10.755 7.23407 10.7998 7.2893 10.7998H9.30832C9.36355 10.7998 9.40832 10.755 9.40832 10.6998V8.94106C9.40832 8.88584 9.36355 8.84106 9.30832 8.84106Z" fill="#00D053"/>
<path d="M12.8982 8.84106H10.8771C10.8219 8.84106 10.7771 8.88584 10.7771 8.94106V10.6998C10.7771 10.755 10.8219 10.7998 10.8771 10.7998H12.8982C12.9534 10.7998 12.9982 10.755 12.9982 10.6998V8.94106C12.9982 8.88584 12.9534 8.84106 12.8982 8.84106Z" fill="#00D053"/>
<path d="M16.2236 8.84106H14.2046C14.1494 8.84106 14.1046 8.88584 14.1046 8.94106V10.6998C14.1046 10.755 14.1494 10.7998 14.2046 10.7998H16.2236C16.2788 10.7998 16.3236 10.755 16.3236 10.6998V8.94106C16.3236 8.88584 16.2788 8.84106 16.2236 8.84106Z" fill="#00D053"/>
<path d="M9.30832 12.0938H7.2893C7.23407 12.0938 7.1893 12.1385 7.1893 12.1938V13.9511C7.1893 14.0063 7.23407 14.0511 7.2893 14.0511H9.30832C9.36355 14.0511 9.40832 14.0063 9.40832 13.9511V12.1938C9.40832 12.1385 9.36355 12.0938 9.30832 12.0938Z" fill="#00D053"/>
<path d="M12.8982 12.0938H10.8771C10.8219 12.0938 10.7771 12.1385 10.7771 12.1938V13.9511C10.7771 14.0063 10.8219 14.0511 10.8771 14.0511H12.8982C12.9534 14.0511 12.9982 14.0063 12.9982 13.9511V12.1938C12.9982 12.1385 12.9534 12.0938 12.8982 12.0938Z" fill="#00D053"/>
<path d="M16.2236 12.0938H14.2046C14.1494 12.0938 14.1046 12.1385 14.1046 12.1938V13.9511C14.1046 14.0063 14.1494 14.0511 14.2046 14.0511H16.2236C16.2788 14.0511 16.3236 14.0063 16.3236 13.9511V12.1938C16.3236 12.1385 16.2788 12.0938 16.2236 12.0938Z" fill="#00D053"/>
<path d="M9.30832 15.4109H7.2893C7.23407 15.4109 7.1893 15.4557 7.1893 15.5109V17.2682C7.1893 17.3235 7.23407 17.3682 7.2893 17.3682H9.30832C9.36355 17.3682 9.40832 17.3235 9.40832 17.2682V15.5109C9.40832 15.4557 9.36355 15.4109 9.30832 15.4109Z" fill="#00D053"/>
<path d="M5.78235 12.0938H3.7647C3.70947 12.0938 3.6647 12.1385 3.6647 12.1938V13.9511C3.6647 14.0063 3.70947 14.0511 3.7647 14.0511H5.78235C5.83758 14.0511 5.88235 14.0063 5.88235 13.9511V12.1938C5.88235 12.1385 5.83758 12.0938 5.78235 12.0938Z" fill="#00D053"/>
<path d="M5.78235 15.4109H3.7647C3.70947 15.4109 3.6647 15.4557 3.6647 15.5109V17.2682C3.6647 17.3235 3.70947 17.3682 3.7647 17.3682H5.78235C5.83758 17.3682 5.88235 17.3235 5.88235 17.2682V15.5109C5.88235 15.4557 5.83758 15.4109 5.78235 15.4109Z" fill="#00D053"/>
<path d="M12.8982 15.4109H10.8771C10.8219 15.4109 10.7771 15.4557 10.7771 15.5109V17.2682C10.7771 17.3235 10.8219 17.3682 10.8771 17.3682H12.8982C12.9534 17.3682 12.9982 17.3235 12.9982 17.2682V15.5109C12.9982 15.4557 12.9534 15.4109 12.8982 15.4109Z" fill="#00D053"/>
<path d="M16.2236 15.4109H14.2046C14.1494 15.4109 14.1046 15.4557 14.1046 15.5109V17.2682C14.1046 17.3235 14.1494 17.3682 14.2046 17.3682H16.2236C16.2788 17.3682 16.3236 17.3235 16.3236 17.2682V15.5109C16.3236 15.4557 16.2788 15.4109 16.2236 15.4109Z" fill="#00D053"/>
</svg>

<svg width="20" height="20" fill="none" xmlns="http://www.w3.org/2000/svg"><path d="M14.907 4.221c.767 0 1.388-.617 1.388-1.385V1.387C16.295.62 15.675 0 14.907 0c-.767 0-1.386.618-1.386 1.387v1.45c0 .767.62 1.384 1.386 1.384z" fill="#00D053"/><path d="M19.837 2.899a.5.5 0 00-.5-.5h-1.794a.5.5 0 00-.5.5v.206a2.113 2.113 0 11-4.223 0V2.9a.5.5 0 00-.5-.5H7.685a.5.5 0 00-.5.5v.205a2.115 2.115 0 01-2.112 2.112A2.114 2.114 0 012.96 3.105v-.212a.5.5 0 00-.494-.5L.649 2.371a.5.5 0 00-.506.5V19.5a.5.5 0 00.5.5H18.45l.908-.003a.5.5 0 00.498-.5l-.02-16.598zm-1.389 15.696H2.052a.5.5 0 01-.5-.5V7.83a.5.5 0 01.5-.5H17.95a.5.5 0 01.5.5v10.765l-.002.001z" fill="#00D053"/><path d="M5.05 4.221c.767 0 1.389-.617 1.389-1.385V1.387C6.439.618 5.817 0 5.05 0S3.664.618 3.664 1.387v1.45c0 .767.619 1.384 1.386 1.384zm4.258 4.62H7.29a.1.1 0 00-.1.1V10.7a.1.1 0 00.1.1h2.02a.1.1 0 00.1-.1V8.94a.1.1 0 00-.1-.1zm3.59 0h-2.02a.1.1 0 00-.1.1V10.7a.1.1 0 00.1.1h2.02a.1.1 0 00.1-.1V8.94a.1.1 0 00-.1-.1zm3.326 0h-2.02a.1.1 0 00-.1.1V10.7a.1.1 0 00.1.1h2.02a.1.1 0 00.1-.1V8.94a.1.1 0 00-.1-.1zm-6.916 3.253H7.29a.1.1 0 00-.1.1v1.757a.1.1 0 00.1.1h2.02a.1.1 0 00.1-.1v-1.757a.1.1 0 00-.1-.1zm3.59 0h-2.02a.1.1 0 00-.1.1v1.757a.1.1 0 00.1.1h2.02a.1.1 0 00.1-.1v-1.757a.1.1 0 00-.1-.1zm3.326 0h-2.02a.1.1 0 00-.1.1v1.757a.1.1 0 00.1.1h2.02a.1.1 0 00.1-.1v-1.757a.1.1 0 00-.1-.1zM9.308 15.41H7.29a.1.1 0 00-.1.1v1.758a.1.1 0 00.1.1h2.02a.1.1 0 00.1-.1v-1.757a.1.1 0 00-.1-.1zm-3.526-3.316H3.765a.1.1 0 00-.1.1v1.757a.1.1 0 00.1.1h2.017a.1.1 0 00.1-.1v-1.757a.1.1 0 00-.1-.1zm0 3.316H3.765a.1.1 0 00-.1.1v1.758a.1.1 0 00.1.1h2.017a.1.1 0 00.1-.1v-1.757a.1.1 0 00-.1-.1zm7.116 0h-2.02a.1.1 0 00-.1.1v1.758a.1.1 0 00.1.1h2.02a.1.1 0 00.1-.1v-1.757a.1.1 0 00-.1-.1zm3.326 0h-2.02a.1.1 0 00-.1.1v1.758a.1.1 0 00.1.1h2.02a.1.1 0 00.1-.1v-1.757a.1.1 0 00-.1-.1z" fill="#00D053"/></svg>
